X:14
T:B014-  Andrew and Maudlin
S:via BBBM, from 'Pills', II, 1719-20
Q:1/4=120
L:1/4
M:6/4
K:Bb
BBBAAA|GGGF3|GGGAAF|BBBc3|\
defeee|dddc3|BBBAAA|GGGF2F|\
GGGAAF|BBBcde|f3/2 e/2dcd^F|GGAB3|]

